X:1
T:Bouree a Soulie
C:traditionell
R:bourree a trois temps
A:France
F:http://simonwascher.info
Z:abc transcription Simon Wascher
M:3/8
L:1/16
K:C minor
cd |\
e4g2 | d6 | edcded | cdedcd |
e4g2 | d6 | edcded | c4 :|
|: c2 |\
f4f2 | e4e2 | dcdfed | c=Bcede |
f4f2 | e4e2 | dcdfde | c4 :|
